images/checkout/visa-c.svg

<svg width="50" height="18" viewBox="0 0 50 18" fill="none" xmlns="http://www.w3.org/2000/svg">
<path d="M19.985 0.172852H24.0032L21.4896 15.484H17.4729L19.985 0.172852Z" fill="url(#paint0_linear_276_3019)"/>
<path d="M36.083 0.667528C35.2868 0.357313 34.0395 0.0244141 32.4816 0.0244141C28.5112 0.0244141 25.7144 2.10128 25.6905 5.07765C25.6681 7.27787 27.6872 8.5052 29.2114 9.23771C30.7755 9.98822 31.3013 10.4669 31.2937 11.1371C31.2839 12.1635 30.0447 12.6324 28.8898 12.6324C27.2815 12.6324 26.4271 12.4003 25.1074 11.8286L24.5896 11.5853L24.0256 15.0131C24.9641 15.4405 26.6997 15.8108 28.5017 15.83C32.7255 15.83 35.4676 13.777 35.4987 10.5986C35.5139 8.85663 34.4432 7.53106 32.1251 6.43827C30.7206 5.72992 29.8604 5.25724 29.8695 4.53998C29.8695 3.90351 30.5976 3.22293 32.1707 3.22293C33.4847 3.20173 34.4365 3.49936 35.1782 3.80957L35.5382 3.98627L36.083 0.667528Z" fill="url(#paint1_linear_276_3019)"/>
<path d="M46.3876 0.304688H43.2827C42.3209 0.304688 41.601 0.577358 41.1786 1.57449L35.2109 15.6072H39.4304C39.4304 15.6072 40.1203 13.7204 40.2763 13.3061C40.7374 13.3061 44.8365 13.3127 45.4224 13.3127C45.5427 13.8487 45.9113 15.6072 45.9113 15.6072H49.6399L46.3876 0.304688ZM41.4327 10.1742C41.7651 9.29193 43.0337 5.89372 43.0337 5.89372C43.0099 5.93448 43.3635 5.00719 43.5664 4.43229L43.838 5.75246C43.838 5.75246 44.6074 9.40754 44.7683 10.174L41.4327 10.1742Z" fill="url(#paint2_linear_276_3019)"/>
<path d="M14.1238 0.302734L10.1898 10.7445L9.77061 8.62254C9.03826 6.17641 6.75648 3.52613 4.20557 2.1993L7.80271 15.5906L12.0541 15.5856L18.3801 0.302734H14.1238Z" fill="url(#paint3_linear_276_3019)"/>
<path d="M6.5407 0.292969H0.0612932L0.0100098 0.611553C5.05092 1.87901 8.38645 4.94197 9.77103 8.62224L8.36213 1.58569C8.11889 0.61609 7.41342 0.326759 6.5407 0.292969Z" fill="url(#paint4_linear_276_3019)"/>
<defs>
<linearGradient id="paint0_linear_276_3019" x1="17.0411" y1="7.09655" x2="24.9485" y2="7.08269" gradientUnits="userSpaceOnUse">
<stop stop-color="#191E5F"/>
<stop offset="1" stop-color="#142787" stop-opacity="0.818"/>
</linearGradient>
<linearGradient id="paint1_linear_276_3019" x1="12.1512" y1="5.68181" x2="43.573" y2="5.50568" gradientUnits="userSpaceOnUse">
<stop stop-color="#191E5F"/>
<stop offset="1" stop-color="#142787" stop-opacity="0.818"/>
</linearGradient>
<linearGradient id="paint2_linear_276_3019" x1="3.00251" y1="4.4971" x2="51.0079" y2="4.08595" gradientUnits="userSpaceOnUse">
<stop stop-color="#191E5F"/>
<stop offset="1" stop-color="#142787" stop-opacity="0.818"/>
</linearGradient>
<linearGradient id="paint3_linear_276_3019" x1="2.7527" y1="4.48869" x2="40.1225" y2="4.17932" gradientUnits="userSpaceOnUse">
<stop stop-color="#191E5F"/>
<stop offset="1" stop-color="#142787" stop-opacity="0.818"/>
</linearGradient>
<linearGradient id="paint4_linear_276_3019" x1="3.13304" y1="4.34062" x2="29.4102" y2="3.99304" gradientUnits="userSpaceOnUse">
<stop stop-color="#191E5F"/>
<stop offset="1" stop-color="#142787" stop-opacity="0.818"/>
</linearGradient>
</defs>
</svg>

<svg width="50" height="18" fill="none" xmlns="http://www.w3.org/2000/svg"><path d="M19.985.173h4.018L21.49 15.484h-4.017L19.985.173z" fill="url(#paint0_linear_276_3019)"/><path d="M36.083.668c-.796-.31-2.044-.644-3.601-.644-3.97 0-6.768 2.077-6.791 5.054-.023 2.2 1.996 3.427 3.52 4.16 1.565.75 2.09 1.229 2.083 1.9-.01 1.026-1.25 1.494-2.404 1.494-1.608 0-2.463-.232-3.783-.803l-.517-.244-.564 3.428c.938.428 2.674.798 4.476.817 4.223 0 6.966-2.053 6.997-5.231.015-1.742-1.056-3.068-3.374-4.16-1.404-.71-2.265-1.182-2.256-1.899 0-.636.729-1.317 2.302-1.317a7.174 7.174 0 013.007.587l.36.176.545-3.318z" fill="url(#paint1_linear_276_3019)"/><path d="M46.388.305h-3.105c-.962 0-1.682.272-2.104 1.27L35.21 15.606h4.22s.69-1.887.845-2.3l5.146.006c.12.536.49 2.294.49 2.294h3.728L46.388.305zm-4.955 9.87c.332-.883 1.6-4.281 1.6-4.281-.023.04.33-.887.533-1.462l.272 1.32s.77 3.656.93 4.422h-3.335z" fill="url(#paint2_linear_276_3019)"/><path d="M14.124.303L10.19 10.745l-.42-2.122c-.732-2.447-3.014-5.097-5.564-6.424l3.597 13.392 4.251-.005L18.38.303h-4.256z" fill="url(#paint3_linear_276_3019)"/><path d="M6.54.293H.062L.01.612c5.04 1.267 8.376 4.33 9.761 8.01L8.362 1.586C8.12.616 7.413.326 6.541.293z" fill="url(#paint4_linear_276_3019)"/><defs><linearGradient id="paint0_linear_276_3019" x1="17.041" y1="7.097" x2="24.948" y2="7.083" gradientUnits="userSpaceOnUse"><stop stop-color="#191E5F"/><stop offset="1" stop-color="#142787" stop-opacity=".818"/></linearGradient><linearGradient id="paint1_linear_276_3019" x1="12.151" y1="5.682" x2="43.573" y2="5.506" gradientUnits="userSpaceOnUse"><stop stop-color="#191E5F"/><stop offset="1" stop-color="#142787" stop-opacity=".818"/></linearGradient><linearGradient id="paint2_linear_276_3019" x1="3.003" y1="4.497" x2="51.008" y2="4.086" gradientUnits="userSpaceOnUse"><stop stop-color="#191E5F"/><stop offset="1" stop-color="#142787" stop-opacity=".818"/></linearGradient><linearGradient id="paint3_linear_276_3019" x1="2.753" y1="4.489" x2="40.123" y2="4.179" gradientUnits="userSpaceOnUse"><stop stop-color="#191E5F"/><stop offset="1" stop-color="#142787" stop-opacity=".818"/></linearGradient><linearGradient id="paint4_linear_276_3019" x1="3.133" y1="4.341" x2="29.41" y2="3.993" gradientUnits="userSpaceOnUse"><stop stop-color="#191E5F"/><stop offset="1" stop-color="#142787" stop-opacity=".818"/></linearGradient></defs></svg>
